X:3238
T:Kerrigan's Jig
O:england
M:6/8
R:jig
E:6
K:G
D|~G3 GAB|ABA ABd|edd gdd|edB dBA|~G3 GAB|ABA ABd|edd gdB|AGF G2:|
A|~B3 dBd|ege dBG|~B3 dBG|ABA AGA|BAB dBd|ege dBd|gfg aga|bgf g2:|


